X: 48
T:City of Savannah
% Nottingham Music Database
S:Trad via Lesley Dolman
M:4/4
L:1/8
R:Hornpipe
K:D
FG|"D"A2/3B2/3A2/3 FA dfaf|"G"gaba gfed|"Em"cded cdBc|"A7"ABGA FFG^G|
"D"A2/3B2/3A2/3 FA dfaf|"G"gaba gfed|"A7"cbag fABc|"D"d2f2 d2:|:

e2|"A"e2/3f2/3e2/3 ce aec'e|"E7"be^ge "A"aebe|"A"e2/3f2/3e2/3 ce aec'e|"E7"be^ge "A"a4|
"A7"a2/3b2/3a2/3ga eac2|"D"a2/3b2/3a2/3 fa daA2|"G"g2/3a2/3g2/3Gg "D"f2/3g2/3f2/3 Af|"A7"eABc "D"d2:|


